!!!OTL: Rundgesang (213), S. 464
!!!id: T0397
**kern
*clefG2
*k[f#]
*G:
{8d
=1
4g
4dd
=2
8b
8a
4g}
=3
{4b
8a
8a
=4
4d
4f#
=5
4g}
=6
{4d
=7
4g
4dd
=8
8b
8a
4g}
=9
{4b
8a
8a
=10
4d
4f#
=11
4g}
8r
=12
{8dd
=13
8dd
8cc
8b
8dd
=14
8dd
8cc
8b}
=15
{8dd
=16
8ee
8dd
8cc
8a
=17
8g
8g
8g}
=18
{8dd
=19
8dd
8cc
8b
8dd
=20
8dd
8cc
8b}
=21
{8dd
=22
8ee
8dd
8cc
8a
=23
8g
8g
8g}
==
*-
!!!minrhy: 8
!!!meters: 2/4 ]  ZZ[8
!!!cut: Rundgesang (213), S. 464
!!!reg: Luxemburg
!!!trd: Singendes Volk, Esch-Alzette, 1937 posth.
!!!rhy1: X  X_X_  XXX_
!!!rhy2: X_XX  X_X_  X_
!!!key: T0397  08  G 2/4 ]  ZZ[8
!!!mod: HEPTATONIK IONISCH]  AMBITUS[9
!!!kad: 11113131
!!!akz: 13_3-51_13_3-51_55_61_55_61_
!!!fot: 'a__b__a__b__c__d__c__d__
!!!for: 'a__b__av_bv_c__c__c__c__
!!!fok: '^a_Vd_^a_Vd_\__\__\__\__
!! PHRAS[VORWIEGEND AUFTAKTIG]
!!!fkt: Trink-, Zechlied
!!!bem1: Hamm, ? Welter, 26.3.1933
!!!bem2: (214)- Consdorf, Liederheft, 1848-51, ohne Melodie;
!!!bem3: (215)- StraPen, fff Witry, 13.12.1932
!! THILL; Mathias
!! PR[35] 2K[0] 2G[15] 3K[12] 3G[0] 4A[0] 4Ü[0] 5A[0] 6K[0] 6G[0]
!! 7K[0] 7G[0] 8A[0] MEHR[0] SI[27] ABS[26] SR[15] SP[12]
!! ST[8] 2k[8] 2g[23] 3k[8] 3g[0] 4d[0] 4ü[0] 5d[0] 6k[0] 6g[0]
!! 7k[0] 7g[0] 8d[0] mehr[0] si[38] dm[-11] sr[31] sp[8]
!! 1F[81] 2F[19] 3F[0] 4F[0] LF[0] 2P[0] 3P[0] 4P[0] TRI[0] DF[2] AB[27]
!! TF[0] U3K[0] U3[0] U4[0] U4Ü[0] U5[0] U6K[0] U6[0] U7K[0] U7[0]
!! N1[15] N2K[7] N2[0] N3K[48] N3[0] N4[30] N4Ü[0] N5[0] N6K[0] N6[0]
!!!n7k: 0] N7[0] O1[0] O2K[0] O2[0] O3K[0] O3[0] HÖ[0
